assets/img/braze_icons/hexagon-02.svg

<svg fill="none" height="24" viewBox="0 0 24 24" width="24" xmlns="http://www.w3.org/2000/svg"><path d="m7.94141 1.99988-.07213-.00018c-.26387-.00096-.59565-.00217-.90836.10115-.27035.08932-.51851.23535-.72789.4283-.24218.22317-.40225.51379-.52956.74492l-.03487.06314-4.11111 7.39999-.03325.0595c-.12229.2184-.27612.493-.33932.8003-.05467.2658-.05467.54 0 .8058.0632.3073.21703.5819.33932.8002l.03325.0596 4.11111 7.4.03487.0631c.12731.2311.28738.5217.52956.7449.20938.193.45754.339.72789.4283.31271.1033.64449.1021.90836.1012l.07213-.0002h8.11709l.0721.0002c.2639.0009.5957.0021.9084-.1012.2704-.0893.5185-.2353.7279-.4283.2422-.2232.4022-.5138.5295-.7449l.0349-.0632 4.1111-7.3999.0333-.0596c.1223-.2183.2761-.4929.3393-.8002.0547-.2658.0547-.54 0-.8058-.0632-.3073-.217-.5819-.3393-.8003l-.0333-.0595-4.1111-7.39999-.0348-.06314c-.1274-.23112-.2874-.52176-.5296-.74492-.2094-.19295-.4575-.33897-.7279-.4283-.3127-.10332-.6445-.10211-.9084-.10115l-.0721.00018z" fill="#801ed7"/></svg>

<svg width="24" height="24" viewBox="0 0 24 24" fill="none" xmlns="http://www.w3.org/2000/svg">
<path d="M7.94141 1.99988L7.86928 1.9997C7.60541 1.99874 7.27363 1.99753 6.96092 2.10085C6.69057 2.19017 6.44241 2.3362 6.23303 2.52915C5.99085 2.75232 5.83078 3.04294 5.70347 3.27407L5.6686 3.33721L1.55749 10.7372L1.52424 10.7967C1.40195 11.0151 1.24812 11.2897 1.18492 11.597C1.13025 11.8628 1.13025 12.137 1.18492 12.4028C1.24812 12.7101 1.40195 12.9847 1.52424 13.203L1.55749 13.2626L5.6686 20.6626L5.70347 20.7257C5.83078 20.9568 5.99085 21.2474 6.23303 21.4706C6.44241 21.6636 6.69057 21.8096 6.96092 21.8989C7.27363 22.0022 7.60541 22.001 7.86928 22.0001L7.94141 21.9999H16.0585L16.1306 22.0001C16.3945 22.001 16.7263 22.0022 17.039 21.8989C17.3094 21.8096 17.5575 21.6636 17.7669 21.4706C18.0091 21.2474 18.1691 20.9568 18.2964 20.7257L18.3313 20.6625L22.4424 13.2626L22.4757 13.203C22.598 12.9847 22.7518 12.7101 22.815 12.4028C22.8697 12.137 22.8697 11.8628 22.815 11.597C22.7518 11.2897 22.598 11.0151 22.4757 10.7967L22.4424 10.7372L18.3313 3.33721L18.2965 3.27407C18.1691 3.04295 18.0091 2.75231 17.7669 2.52915C17.5575 2.3362 17.3094 2.19018 17.039 2.10085C16.7263 1.99753 16.3945 1.99874 16.1306 1.9997L16.0585 1.99988L7.94141 1.99988Z" fill="#801ED7"/>
</svg>
